X:131
T:Connie Walsh's
M:12/8
L:1/8
R:Slide
K:D
Bcd Bcd c2B A2A|Bcd e2f g3 f2g|a2f gfe f2d A3| Bcd e2c d3 d3:|!
a2f gfe f2d A2A|Bcd e2f g3 f2g|agf gfe f2d A2A|Bcd e2c d3 d3:|

